svgs/light/ethernet.svg

<svg xmlns="http://www.w3.org/2000/svg" viewBox="0 0 512 512"><!--! Font Awesome Pro 6.6.0 by @fontawesome - https://fontawesome.com License - https://fontawesome.com/license (Commercial License) Copyright 2024 Fonticons, Inc. --><path d="M128 96c0-17.7 14.3-32 32-32l192 0c17.7 0 32 14.3 32 32l0 32 32 0c17.7 0 32 14.3 32 32l0 32 32 0c17.7 0 32 14.3 32 32l0 192c0 17.7-14.3 32-32 32l-80 0-96 0-96 0-96 0-80 0c-17.7 0-32-14.3-32-32L0 224c0-17.7 14.3-32 32-32l32 0 0-32c0-17.7 14.3-32 32-32l32 0 0-32zm224 0L160 96l0 48c0 8.8-7.2 16-16 16l-48 0 0 48c0 8.8-7.2 16-16 16l-48 0 0 192 64 0 0-80c0-8.8 7.2-16 16-16s16 7.2 16 16l0 80 64 0 0-80c0-8.8 7.2-16 16-16s16 7.2 16 16l0 80 64 0 0-80c0-8.8 7.2-16 16-16s16 7.2 16 16l0 80 64 0 0-80c0-8.8 7.2-16 16-16s16 7.2 16 16l0 80 64 0 0-192-48 0c-8.8 0-16-7.2-16-16l0-48-48 0c-8.8 0-16-7.2-16-16l0-48z"/></svg>

<svg xmlns="http://www.w3.org/2000/svg" viewBox="0 0 512 512"><!--! Font Awesome Pro 6.5.2 by @fontawesome - https://fontawesome.com License - https://fontawesome.com/license (Commercial License) Copyright 2024 Fonticons, Inc. --><path d="M128 96c0-17.7 14.3-32 32-32H352c17.7 0 32 14.3 32 32v32h32c17.7 0 32 14.3 32 32v32h32c17.7 0 32 14.3 32 32V416c0 17.7-14.3 32-32 32H400 304 208 112 32c-17.7 0-32-14.3-32-32V224c0-17.7 14.3-32 32-32H64V160c0-17.7 14.3-32 32-32h32V96zm224 0H160v48c0 8.8-7.2 16-16 16H96v48c0 8.8-7.2 16-16 16H32V416H96V336c0-8.8 7.2-16 16-16s16 7.2 16 16v80h64V336c0-8.8 7.2-16 16-16s16 7.2 16 16v80h64V336c0-8.8 7.2-16 16-16s16 7.2 16 16v80h64V336c0-8.8 7.2-16 16-16s16 7.2 16 16v80h64V224H432c-8.8 0-16-7.2-16-16V160H368c-8.8 0-16-7.2-16-16V96z"/></svg>
